X:1
T:Santo Domingo, 87.87 D
T:Barney Elliott Warren, 1893
T:Santo Domingo, 87.87 D
T:Public Domain
C:Barney Elliott Warren, 1893
Z:Public Domain
%%score ( 1 2 ) ( 3 4 )
L:1/8
M:4/4
K:D
V:1 treble 
V:2 treble 
V:3 bass 
V:4 bass 
V:1
 D>[DE] | [DF]2 [DF]2 [EG]2 [^E^G]2 | [FA]2 [Fd]4 [Fd]>[Fd] | [GB]2 [GB]2 [GB]2 [GB]2 | %4
 [FA]6 D>[DE] | [DF]2 [DF]2 [EG]2 [^E^G]2 | [FA]2 [Fd]4 [Fd]>[Fd] | %7
 [Gc]2 [GB]2 ([FA][EG])([DF][CE]) | D6 [DA]>[DA] | [Fd]2 [Fd]2 [Fd]2 [Ac]2 | %10
 [GB]2 [GB]4 [GB]>[GB] | [FA]3 [GB] [FA]2 [DF]2 | [CE]6 D>[CE] | [DF]2 [DF]2 [EG]2 [^E^G]2 | %14
 [FA]2 [Fd]4 [Fd]>[Fd] | [Gc]2 [GB]2 ([FA][EG])([DF][CE]) | D6 |] %17
V:2
 D3/2 x/ | x8 | x8 | x8 | x6 D3/2 x/ | x8 | x8 | x8 | D6 x2 | x8 | x8 | x8 | x6 D3/2 x/ | x8 | x8 | %15
 x8 | D6 |] %17
V:3
 [D,F,]>[D,G,] | [D,A,]2 [D,A,]2 [D,A,]2 [D,D]2 | [D,D]2 [D,A,]4 [D,A,]>[D,A,] | %3
 [G,D]2 [G,D]2 [G,D]2 [G,D]2 | [D,D]6 [D,F,]>[D,G,] | [D,A,]2 [D,A,]2 [D,A,]2 [D,D]2 | %6
 [D,D]2 [D,A,]4 [D,A,]>[D,A,] | [G,B,]2 [G,D]2 [A,D]2 (A,G,) | [D,F,]6 [D,F,]>[D,F,] | %9
 [D,A,]2 [D,A,]2 [D,A,]2 [F,D]2 | [G,D]2 [G,D]4 [G,D]>[G,D] | [D,D]3 [D,D] [D,D]2 [D,A,]2 | %12
 [A,,A,]6 [A,,F,]>[A,,G,] | [D,A,]2 [D,A,]2 [D,A,]2 [D,D]2 | [D,D]2 [D,A,]4 [D,A,]>[D,A,] | %15
 [G,B,]2 [G,D]2 [A,D]2 (A,G,) | [D,F,]6 |] %17
V:4
 x2 | x8 | x8 | x8 | x8 | x8 | x8 | x6 A,,2 | x8 | x8 | x8 | x8 | x8 | x8 | x8 | x6 A,,2 | x6 |] %17

